assets/icons/settings.svg

<svg xmlns="http://www.w3.org/2000/svg" viewBox="0 0 24 24" fill="none">
<path d="M7.878 5.21415L7.17474 5.05186C6.58003 4.91462 5.95657 5.09343 5.525 5.525C5.09343 5.95657 4.91462 6.58003 5.05186 7.17474L5.21415 7.878C5.40122 8.6886 5.06696 9.53036 4.37477 9.99182L3.51965 10.5619C3.03881 10.8825 2.75 11.4221 2.75 12C2.75 12.5779 3.03881 13.1175 3.51965 13.4381L4.37477 14.0082C5.06696 14.4696 5.40122 15.3114 5.21415 16.122L5.05186 16.8253C4.91462 17.42 5.09343 18.0434 5.525 18.475C5.95657 18.9066 6.58003 19.0854 7.17474 18.9481L7.878 18.7858C8.6886 18.5988 9.53036 18.933 9.99182 19.6252L10.5619 20.4804C10.8825 20.9612 11.4221 21.25 12 21.25C12.5779 21.25 13.1175 20.9612 13.4381 20.4804L14.0082 19.6252C14.4696 18.933 15.3114 18.5988 16.122 18.7858L16.8253 18.9481C17.42 19.0854 18.0434 18.9066 18.475 18.475C18.9066 18.0434 19.0854 17.42 18.9481 16.8253L18.7858 16.122C18.5988 15.3114 18.933 14.4696 19.6252 14.0082L20.4804 13.4381C20.9612 13.1175 21.25 12.5779 21.25 12C21.25 11.4221 20.9612 10.8825 20.4804 10.5619L19.6252 9.99182C18.933 9.53036 18.5988 8.6886 18.7858 7.878L18.9481 7.17473C19.0854 6.58003 18.9066 5.95657 18.475 5.525C18.0434 5.09343 17.42 4.91462 16.8253 5.05186L16.122 5.21415C15.3114 5.40122 14.4696 5.06696 14.0082 4.37477L13.4381 3.51965C13.1175 3.03881 12.5779 2.75 12 2.75C11.4221 2.75 10.8825 3.03881 10.5619 3.51965L9.99182 4.37477C9.53036 5.06696 8.6886 5.40122 7.878 5.21415Z" stroke="currentColor" stroke-width="1.5" stroke-linejoin="round"/><path d="M14.75 12C14.75 13.5188 13.5188 14.75 12 14.75C10.4812 14.75 9.25 13.5188 9.25 12C9.25 10.4812 10.4812 9.25 12 9.25C13.5188 9.25 14.75 10.4812 14.75 12Z" stroke="currentColor" stroke-width="1.5" stroke-linejoin="round"/>
</svg>

<svg xmlns="http://www.w3.org/2000/svg" width="24" height="24" fill="none" viewBox="0 0 24 24">
  <path stroke="currentColor" stroke-linejoin="round" stroke-width="1.5" d="m7.878 5.214-.703-.162a1.77 1.77 0 0 0-2.123 2.123l.162.703a2 2 0 0 1-.84 2.114l-.854.57a1.728 1.728 0 0 0 0 2.876l.855.57a2 2 0 0 1 .84 2.114l-.163.703a1.77 1.77 0 0 0 2.123 2.123l.703-.162a2 2 0 0 1 2.114.84l.57.854a1.728 1.728 0 0 0 2.876 0l.57-.855a2 2 0 0 1 2.114-.84l.703.163a1.77 1.77 0 0 0 2.123-2.123l-.162-.703a2 2 0 0 1 .84-2.114l.854-.57a1.728 1.728 0 0 0 0-2.876l-.855-.57a2 2 0 0 1-.84-2.114l.163-.703a1.77 1.77 0 0 0-2.123-2.123l-.703.162a2 2 0 0 1-2.114-.84l-.57-.854a1.728 1.728 0 0 0-2.876 0l-.57.855a2 2 0 0 1-2.114.84Z"/>
  <path stroke="currentColor" stroke-linejoin="round" stroke-width="1.5" d="M14.75 12a2.75 2.75 0 1 1-5.5 0 2.75 2.75 0 0 1 5.5 0Z"/>
</svg>
